svgs/crypto_bubbles.svg

<?xml version="1.0" encoding="UTF-8" standalone="no"?>
<!-- Created with Inkscape (http://www.inkscape.org/) -->

<svg
   width="192"
   height="192"
   viewBox="0 0 192 192"
   version="1.1"
   id="svg1"
   xmlns="http://www.w3.org/2000/svg"
   xmlns:svg="http://www.w3.org/2000/svg">
  <defs
     id="defs1" />
  <g
     id="g5"
     style="stroke-width:12;stroke-dasharray:none">
    <path
       style="fill:none;stroke:#000000;stroke-width:12;stroke-linecap:round;stroke-linejoin:round;stroke-miterlimit:7.55883;stroke-dasharray:none;stroke-opacity:1;paint-order:stroke fill markers"
       d="m 130.45,147.66502 a 20.276094,20.263888 0 0 1 -20.2761,20.2639 20.276094,20.263888 0 0 1 -20.27609,-20.2639 20.276094,20.263888 0 0 1 20.27609,-20.26388 20.276094,20.263888 0 0 1 20.2761,20.26388 z"
       id="path5" />
    <path
       style="fill:none;stroke:#000000;stroke-width:12;stroke-linecap:round;stroke-linejoin:round;stroke-miterlimit:7.55883;stroke-dasharray:none;stroke-opacity:1;paint-order:stroke fill markers"
       d="M 47.244463,88.683513 A 12.622232,12.614631 0 0 1 34.622232,101.29815 12.622232,12.614631 0 0 1 22,88.683513 12.622232,12.614631 0 0 1 34.622232,76.068882 12.622232,12.614631 0 0 1 47.244463,88.683513 Z"
       id="path4" />
    <path
       style="fill:none;stroke:#000000;stroke-width:12;stroke-linecap:round;stroke-linejoin:round;stroke-miterlimit:7.55883;stroke-dasharray:none;stroke-opacity:1;paint-order:stroke fill markers"
       d="M 122.70901,95.098013 A 37.921912,38.142908 0 0 1 84.7871,133.24091 37.921912,38.142908 0 0 1 46.865189,95.098013 37.921912,38.142908 0 0 1 84.7871,56.955104 37.921912,38.142908 0 0 1 122.70901,95.098013 Z"
       id="path3" />
    <path
       style="fill:none;stroke:#000000;stroke-width:12;stroke-linecap:round;stroke-linejoin:round;stroke-miterlimit:7.55883;stroke-dasharray:none;stroke-opacity:1;paint-order:stroke fill markers"
       d="M 170,81.578619 A 24.440385,24.623511 0 0 1 145.55962,106.20213 24.440385,24.623511 0 0 1 121.11923,81.578619 24.440385,24.623511 0 0 1 145.55962,56.955108 24.440385,24.623511 0 0 1 170,81.578619 Z"
       id="path1" />
    <path
       style="fill:none;stroke:#000000;stroke-width:12;stroke-linecap:round;stroke-linejoin:round;stroke-miterlimit:7.55883;stroke-dasharray:none;stroke-opacity:1;paint-order:stroke fill markers"
       d="M 111.81977,41.011893 A 16.940737,16.940816 0 0 1 94.879036,57.95271 16.940737,16.940816 0 0 1 77.938298,41.011893 16.940737,16.940816 0 0 1 94.879036,24.071079 16.940737,16.940816 0 0 1 111.81977,41.011893 Z"
       id="path2" />
  </g>
</svg>

<svg xmlns="http://www.w3.org/2000/svg" width="192" height="192"><g style="stroke-width:12;stroke-dasharray:none"><path d="M130.45 147.665a20.276 20.264 0 0 1-20.276 20.264 20.276 20.264 0 0 1-20.276-20.264 20.276 20.264 0 0 1 20.276-20.264 20.276 20.264 0 0 1 20.276 20.264M47.244 88.684a12.622 12.615 0 0 1-12.622 12.614A12.622 12.615 0 0 1 22 88.684a12.622 12.615 0 0 1 12.622-12.615 12.622 12.615 0 0 1 12.622 12.615" style="fill:none;stroke:#000;stroke-width:12;stroke-linecap:round;stroke-linejoin:round;stroke-miterlimit:7.55883;stroke-dasharray:none;stroke-opacity:1;paint-order:stroke fill markers"/><path d="M122.709 95.098a37.922 38.143 0 0 1-37.922 38.143 37.922 38.143 0 0 1-37.922-38.143 37.922 38.143 0 0 1 37.922-38.143 37.922 38.143 0 0 1 37.922 38.143" style="fill:none;stroke:#000;stroke-width:12;stroke-linecap:round;stroke-linejoin:round;stroke-miterlimit:7.55883;stroke-dasharray:none;stroke-opacity:1;paint-order:stroke fill markers"/><path d="M170 81.579a24.44 24.624 0 0 1-24.44 24.623 24.44 24.624 0 0 1-24.44-24.623 24.44 24.624 0 0 1 24.44-24.624A24.44 24.624 0 0 1 170 81.58M111.82 41.012a16.94 16.94 0 0 1-16.941 16.94 16.94 16.94 0 0 1-16.94-16.94 16.94 16.94 0 0 1 16.94-16.94 16.94 16.94 0 0 1 16.94 16.94" style="fill:none;stroke:#000;stroke-width:12;stroke-linecap:round;stroke-linejoin:round;stroke-miterlimit:7.55883;stroke-dasharray:none;stroke-opacity:1;paint-order:stroke fill markers"/></g></svg>
